X:57
T:Miss Logan’s Jig. RDO.57
M:6/8
L:1/8
Q:3/8=110
S:Robert D. Owen MS,Indiana,1826.
R:.Jig
O:Indiana,USA
A:New Harmony
Z:vmp.Chris Partington
K:Bb
GDG BGB|cdc cde|dfe dcB|ABG FED|!
GDG BGB|cdc cde|dcB AGF|GAG G3:|!
|:g3 dgb|gdg bag|f3cfa|ABG F=ED|!
g3 dgb|gdg bag|bag ^fga|gag g2a|!
bag fed|gfe dcB|=ef_e dcB|ABG F=ED|!
GDG BGB|cdc cde|dcB AGF|GAG G3:|

